KINDER
CUT[BAEH LAEMMEL BAEH]
REG[Europa, Mitteleuropa, Deutschland, Breslau]
KEY[K0260  16  F 2/4]
MEL[  5__3_2_  1__0_
    1_  5_5_3_2_  1__0_
    1_  2_2_2_2_  3_.21_
    1_  2_2_2_2_  3_.21_
    1_  5_5_3_2_  1__0__ //] >>
FCT[Kinder -, Kose -, Scherz - Lied]
